X:1
T:Nolo mortem peccatoris
T:Thomas Morley (c.1557 -1602) 
%%score [ 1 2 3 4 ]
L:1/8
Q:1/4=90
M:4/4
K:G
V:1 treble nm="S" snm="S"
V:2 treble nm="A" snm="A"
V:3 treble-8 nm="T" snm="T"
V:4 bass nm="B" snm="B"
V:1
"^\n" E6 E2 | G4 F2 G2- | G2 A2 B4 | F2 B4 A2 | B2 G2 c2 B2 | A4 G2 B2- | B2 A2 G2 F2 | %7
w: No- lo|mor- tem pec-|* ca- to-|ris, no- lo|mor- tem pec- ca-|to- ris; haec|_ sunt ver- ba|
 FE (E4 ^D2) | E8 || B4 B2 B2 | B2 B2 A2 F2 | ^G4 z4 | z8 | z4 z2 B2 | G2 E2 A2 d2 | c2 (B4 A2) | %16
w: Sal- va- to- *|ris.|Fa- ther, I|am thine on- ly|Son,||sent|down from heav'n man-|kind to _|
 B2 F2 G2 B2 | A2 G2 d4- | d2 ^c2 d3 =c | B2 B2 A3 c | B2 A2 B3 A | ^G2 B2 =G2 E2 | c4 B2 B2- | %23
w: save. Fa- ther, all|things ful- fill'd|_ and done ac-|cord- ing to thy|will, thy will, I|have. Fa- ther, my|will now all|
 B2 A2 B2 F2 | G2 B2 E2 G2 | F2 (E4 ^D2) | !fermata!E8 || E4 B2 !courtesy!=d2 | c2 B2 A2 G2 | %29
w: _ is this: No-|lo mor- tem pec-|ca- to- *|ris.|Fa- ther, be-|hold my pain- ful|
 F4 z4 | z4 z2 F2 | B2 d2 ^c2 B2 | A6 G2 | F4 z2 F2 | G2 A2 B4 | A2 d4 ^c2 | d4 z4 | %37
w: smart,|ta-|ken for man on|ev- 'ry|side, ev'n|from my birth|to death most|tart,|
 z2 B2 d2 !courtesy!=c2 | B2 A2 G2 (F2- | FE E4 ^D2) | E2 B2 B3 B | A2 G2 c2 c2 | B4 d4 | %43
w: no kind of|pain I have de-||nied, but suf- fer'd|all, and all for|this: No-|
 c2 B3 B A2- | AG (G4 F2) | G4 z4 | z8 | z2 c4 B2 | A4 G4 | A2 B2 c4 | B4 A2 G2 | F4 E2 F2- | %52
w: lo mor- tem pec-|* ca- to- *|ris,||no- lo|mor- tem|pec- ca- to-|ris, no- lo|mor- tem pec-|
 FE (E4 ^D2) | !fermata!E8 |] %54
w: * ca- to- *|ris.|
V:2
 z4 B,4 | B,2 E4 D2 | E2 E4 ^D^C | ^D4 z2 E2 | D2 (E2 G4) | E6 D2 | G2 F2 E2 D2- | D2 A,2 B,4 | %8
w: No-|lo mor- tem|pec- ca- to- *|ris, pec-|ca- to- *|ris, haec|sunt ver- ba Sal-|* va- to-|
 B,8 || G4 G2 G2 | F2 G2 F2 F2 | E4 z2 E2 | D2 B,2 E2 A2 | G2 G2 F4 | z2 E2 E2 D2 | E2 B,2 E2 E2 | %16
w: ris.|Fa- ther, I|am thine on- ly|Son, sent|down from heav'n man-|kind to save,|sent down from|heav'n man- kind to|
 F4 z2 F2 | E2 E2 F2 G2 | F2 (G4 F2) | G2 G2 F3 E | ^D2 E2 E2 D2 | E4 z2 E2 | E2 A2 G2 F2 | %23
w: save. Fa-|ther, all things ful-|fill'd and _|done, ac- cord- ing|to thy will I|have. Fa-|ther, my will now|
 E2 E2 ^D4 | z2 !courtesy!=D2 E2 B,2 | C2 A,A, B,4 | !fermata!B,8 || z4 B,4 | E2 G2 F2 E2 | %29
w: all is this:|No- lo mor-|tem pec- ca- to-|ris.|Fa-|ther, be- hold my|
 E2 ^D2 E4 | z2 E2 F2 A2 | G2 F2 G2 E2 | F2 F2 E3 D | ^C4 z2 ^D2 | E2 F2 G2 G2 | E2 F2 G4 | %36
w: pain- ful smart,|ta- ken for|man on ev- 'ry|side, on ev- 'ry|side. Ev'n|from my birth to|death most tart,|
 F2 G2 D4 | D4 z2 G2 | G2 F2 E2 D2- | DC (A,2 B,4) | B,2 G2 G3 G | E2 G2 G2 F2 | G2 G4 F2 | %43
w: to death most|tart, no|kind of pain I|_ have de- *|nied, but suf- fer'd|all, and all for|this: No- lo|
 E4 D2 C2- | C(B, G,2) A,4 | G,4 z4 | z8 | z4 z2 G2- | G2 F2 E4 | D4 C2 C2 | G4 F2 E2- | %51
w: mor- tem pec-|* ca- * to-|ris.||No-|­ lo mor-|tem pec- ca-|to- ris, no-|
 E2 ^D2 E2 C2 | B,2 B,2 B,4 | !fermata!B,8 |] %54
w: * lo mor- tem|pec- ca- to-|ris.|
V:3
 z4 E4- | E2 E2 B2 B2 | c2 c2 B4- | B4 E4 | z2 B2 (GA B2) | c4 B4 | d2 d2 B2 B2 | A2 E2 F4 | ^G8 || %9
w: No-|* lo mor- tem|pec- ca- to-|* ris,|pe- ca- * *|to- ris,|haec sunt ver- ba|Sal- va- to-|ris.|
 e4 e2 e2 | ^d2 e2 e2 d2 | e2 B2 G2 E2 | B2 d2 c2 A2 | B2 ^c2 d2 d2 | e2 e2 f2 f2 | g2 f2 e2 e2 | %16
w: Fath- er, I|am thine on- ly|Son, sent down from|heav'n man- kind to|save, man- kind to|save, sent down from|heav'n man- kind to|
 ^d4 z2 =d2 | c2 B2 d4- | d2 G2 A2 A2 | G2 d2 d2 A2 | F2 E2 F2 F2 | E4 z2 B2 | A2 e2 e2 B2 | %23
w: save. Fath-|er, all things|_ ful- fill'd and|done, ac- cord- ing|to thy will I|have. Fa-|ther, thy will now|
 E2 E2 F4 | z2 F2 A2 G2 | A2 EE F4 | !fermata!^G8 || z8 | z4 z2 E2 | B2 =d2 c2 B2 | A2 G2 F4 | %31
w: all is this:|No- lo mor-|tem pec- ca- to-|ris.||Fa-|ther, be- hold my|pain- ful smart,|
 z4 z2 E2 | A2 d2 ^c2 B2 | B2 ^A2 B4 | z4 z2 d2 | c2 !courtesy!=A2 G4 | A2 B4 A2 | B4 z2 e2 | %38
w: ta-|ken for man on|ev- 'ry side.|Ev'n|from my birth|to death most|tart, no|
 d2 d2 B2 B2 | A2 (E2 F4) | ^G2 e2 d3 d | c2 d2 c2 c2 | d4 z4 | z8 | z4 z2 c2- | c2 B2 A4 | %46
w: kind of pain I|have de- *|nied, but suf- fer'd|all, and all for|this:||No-|* lo mor-|
 G2 B2 A2 (G2- | G2 F2) G4 | z8 | z2 g4 f2 | e2 d2 d2 B2 | B4 B2 A2- | A2 G2 F4 | !fermata!^G8 |] %54
w: tem pec- ca- to-|* * ris,||no- lo|mor- tem pec- ca-|to- ris, pec-|* ca- to-|ris.|
V:4
 z8 | z8 | z4 B,,4- | B,,2 B,,2 C,4 | B,,2 (E,3 F,) G,2 | A,4 E,2 G,2- | G,2 D,2 E,2 B,,2 | %7
w: ||No-|* lo mor-|tem pec- * ca-|to- ris; haec|_ sunt ver- ba|
 D,2 C,2 B,,4 | E,8 || E,4 E,2 E,2 | B,2 G,2 A,2 B,2 | E,8 | z8 | z2 E,2 D,2 B,,2 | %14
w: Sal- va- to-|ris.|Bű- ne- im|sú- lyos ter- he|nyom,||de sza- vad|
 E,2 G,2 F,2 F,2 | E,2 D,2 C,2 C,2 | B,,4 z2 B,,2 | C,2 E,2 D,2 B,,2 | D,2 E,2 D,4 | %19
w: re- ményt ad- va,|re- ményt ad- va|száll, Mert|jó- ság vagy és|ir- ga- lom,|
 z2 G,2 D,3 A,, | B,,2 C,2 B,,2 B,,2 | E,4 z2 E,2 | C,2 A,,2 E,2 D,2 | C,2 C,2 B,,4 | %24
w: ki min- den|bű- nöst visz- sza|vár. E|sza- vak hív- nak|en- gem is:|
 z2 B,,2 C,2 E,2 | A,,2 C,C, B,,4 | !fermata!E,8 || z8 | z8 | B,,4 E,2 G,2 | F,2 E,2 E,2 ^D,2 | %31
w: No- lo mor-|tem pec- ca- to-|ris.|||Jó- sá- gos,|ál- dott Is- te-|
 E,2 B,,2 E,2 G,2 | F,2 !courtesy!=D,2 E,4 | F,4 B,,4 | z4 z2 B,,2 | C,2 D,2 E,4 | D,2 G,4 F,2 | %37
w: nem, nagy ir- gal-|ma- dért di-|csér- lek,|Mert|nem ve- sztem|el é- le-|
 G,4 z2 E,2 | G,2 D,2 E,2 B,,2 | D,2 C,2 B,,4 | E,2 E,2 G,3 G, | C2 B,2 A,2 A,2 | G,4 z4 | z8 | %44
w: tem, ha|hoz- zád szív- ből|meg- * té-|rek. Te él- te-|ted, ki ben- ned|hisz:||
 z8 | z2 G,4 F,2 | E,2 D,2 C,2 B,,2 | A,,4 G,,4 | z4 z2 C2- | C2 B,2 A,4 | G,4 D,2 E,2 | %51
w: |No- lo|mor- tem pec- ca-|to- ris,|no-|* lo mor-|tem pec- ca-|
 B,,4 E,2 A,,A,, | B,,8 | !fermata!E,8 |] %54
w: to- ris, pec- ca-|to-|ris.|

